X:671
T:Polska # 671
M:3/4
L:1/16
Q:120
K:D
A3B A3G F3G|A3df4f4|e2f2 g3e c3e|e3d f3d A4|A3B A3G F3G|
A3d f4f4|e2f2 g3f e3d| c3ed8::c3e c3e c3e|d3f d3f d3f|
e3f g3f e3d|c2Bc d3BA4|A3B A3G F3G| A3d f4f4|e3f g3f e3d|c3e d8:|
